X: 1
T:The Cook in The Kitchen  "CYMRU - NOTE :- The 'run of 3 in this tune i
M:6/8
L:1/8
Q:80
C:Trad. Irish
S:Double Jig
K:HP
[| {gde}d3/4c/4|
{g}Ad{c}d{g}ded|
{g}cAB{g}c2B|  !
{g}Ad{c}d{gde}dcd|
{g}ea{g}aged| |
{g}Ad{c}d{g}ded|  !
{g}cAB{g}c2a|
ged{g}c2{GdG}e|
{g}fd{c}d{gde}d2c|] [|  !
{g}Ad{c}d{g}ded|
{g}cAB{g}c2B|
{g}Ad{c}d{g}Ad{c}d|  !
{g}ea{g}aged| |
{gde}dAd{g}dfd|
{g}c{d}AB{g}c2a|  !
ged{g}c2{GdG}e|
{g}fdc{Gdc}d2|] [|
e|  !
f{g}f{e}f{g}fed|
{g}efe{gef}edc|
d{g}d{c}d{g}Bcd|  !
{g}ea{g}aged| |
{g}fgf{g}fed|
{g}efe{gef}e2a|  !
ged{g}cde|
{g}fd{c}d{gde}d2e|] [|
f{g}f{c}f{g}fed|  !
{g}((3efge){g}edc|
d{g}d{c}d{gde}dcd|
{g}ea{g}a{g}ag{a}e| |  !
{gfg}f3{g}fed|
e{g}e{A}e{gef}e2a|
ged{g}c2{GdG}e|  !
{g}fdc{Gdc}d2|]
